ui/StatusQ/src/assets/img/icons/dapp.svg

<svg fill="none" height="24" viewBox="0 0 20 24" width="22" xmlns="http://www.w3.org/2000/svg"><g fill="#000"><path d="m11 4.5h-3.30769c-.70956 0-.86241.00619-.96269.02457-.61302.11234-1.09271.59203-1.20505 1.20505-.01838.10028-.02457.25313-.02457.96269v1.55769c0 .41421-.33579.75-.75.75s-.75-.33579-.75-.75v-1.55769c0-.64328 0-.96493.04914-1.23308.22468-1.22603 1.18406-2.18541 2.41009-2.41009.26815-.04914.5898-.04914 1.23308-.04914h3.30769c4.9706 0 9 4.02944 9 9 0 4.9706-4.0294 9-9 9h-3.30769c-.64328 0-.96493 0-1.23308-.0491-1.22603-.2247-2.18541-1.1841-2.41009-2.4101-.04914-.2682-.04914-.5898-.04914-1.2331v-1.5577c0-.4142.33579-.75.75-.75s.75.3358.75.75v1.5577c0 .7095.00619.8624.02457.9627.11234.613.59203 1.0927 1.20505 1.205.10028.0184.25313.0246.96269.0246h3.30769c4.1421 0 7.5-3.3579 7.5-7.5 0-4.14214-3.3579-7.5-7.5-7.5z"/><path d="m3 11.25c-.41421 0-.75.3358-.75.75s.33579.75.75.75h8c.4142 0 .75-.3358.75-.75s-.3358-.75-.75-.75z"/></g></svg>

<svg width="22" height="24" viewBox="0 0 20 24" fill="none" xmlns="http://www.w3.org/2000/svg">
<path d="M11 4.5H7.69231C6.98275 4.5 6.8299 4.50619 6.72962 4.52457C6.1166 4.63691 5.63691 5.1166 5.52457 5.72962C5.50619 5.8299 5.5 5.98275 5.5 6.69231V8.25C5.5 8.66421 5.16421 9 4.75 9C4.33579 9 4 8.66421 4 8.25V6.69231C4 6.04903 4 5.72738 4.04914 5.45923C4.27382 4.2332 5.2332 3.27382 6.45923 3.04914C6.72738 3 7.04903 3 7.69231 3H11C15.9706 3 20 7.02944 20 12C20 16.9706 15.9706 21 11 21H7.69231C7.04903 21 6.72738 21 6.45923 20.9509C5.2332 20.7262 4.27382 19.7668 4.04914 18.5408C4 18.2726 4 17.951 4 17.3077V15.75C4 15.3358 4.33579 15 4.75 15C5.16421 15 5.5 15.3358 5.5 15.75V17.3077C5.5 18.0172 5.50619 18.1701 5.52457 18.2704C5.63691 18.8834 6.1166 19.3631 6.72962 19.4754C6.8299 19.4938 6.98275 19.5 7.69231 19.5H11C15.1421 19.5 18.5 16.1421 18.5 12C18.5 7.85786 15.1421 4.5 11 4.5Z" fill="black"/>
<path d="M3 11.25C2.58579 11.25 2.25 11.5858 2.25 12C2.25 12.4142 2.58579 12.75 3 12.75H11C11.4142 12.75 11.75 12.4142 11.75 12C11.75 11.5858 11.4142 11.25 11 11.25H3Z" fill="black"/>
</svg>
